!!!OTL: Mailied des 14. Jahrhunderts
!!!ARE: Europa, Mitteleuropa, Deutschland
!!!SCT: A0579
!!!YEM: Copyright 1995, estate of Helmut Schaffrath.
**kern
*ICvox
*Ivox
*M4/1
*k[b-]
*F:
{2f
=1
1f
1f
1f
1d
=2
0c
1.g}
{2a
=3
1g
1f
1e
1d
=4
0.c
2r}
{2f
=5
1f
1f
1f
1d
=6
0c
1.g}
{2a
=7
1g
1f
1e
1d
=8
0.c
2r}
{2c
=9
1f
1f
1e
1e
=10
0f
1.g}
{2g
=11
1g
1g
1a
1f
=12
0g
0g}
=13
{1.cc
2b-
1a
1g
=14
0f
1b-}
{1b-
=15
1a
1g
1f
1e
=16
0.f
2r}
==
!!!AGN: Romanze, Ballade, Lied, religioeses Lied
!! Triller 1555
!!!ONB: ESAC (Essen Associative Code) Database: ALTDEU
!!!AMT: simple quadruple
!!!AIN: vox
!!!EED: Helmut Schaffrath
!!!EEV: 1.0
*-
